X:024 
T:Bright May Moon (reel), The
F:file ID: cre.5/024bright_mm
B:CRE5.121 (Gealach Gheal Bealtaine)
Q:180
M:4/4
R:reel
K:A
E|A2cA BAcB|A2cA BAFE|A2cA BAcd|efed cBAF|
"5"A2cA BAcB|A2cA BAFA|d2cd B2AF|EFAB cAA2||
"9"ceae ceae|ceae cBB2|ceae ceae|faed cAA2|
"13"ceae ceae|ceae cBB2|ceef a2af|efed ceaf||
"17"e2cA eAcA|e2cA BEE2|e2cA eAcA|Bc/d/ cB AFF2|
"21"a2ga f2eg|fddf ecAc|dfed c2ec|B2Bc BAFE|\
"last time"A8|]


%%%

